!! 00047] TT[KA
!! NN
!!!OTL: Fengshou buwang gongchan dang
!!!ARE: Asia, China,ˇbei Anhui, Fengtai, Nord)
!! Ethnic Group: Han
!! III, 520
!!!SCT: C0335
!!!YEM: Copyright 1995, estate of Helmut Schaffrath.
**kern
*ICvox
*Ivox
*M2/4
*k[b-]
*F:
{8.cc
16a
8.g
16a
=1
8.cc
16dd
8d
8f
=2
8.g
16a
8.f
16g
=3
8.cc
16ff
16dd
16cc
8a
=4
4.g
8r}
=5
{16a
16cc
8d
8.f
16d
=6
8.f
16g
8a
8cc
=7
8.dd
16cc
8a
8f
=8
8.g
16a
16f
16g
16f
16d
=9
4.c
8r}
=10
{8.c
16d
8.f
16d
=11
8.f
16g
16a
16cc
8a
=12
8.g
16a
8d
8f
=13
8.a
16g
16f
16g
8e}
=14
{8d
8cc
8a
8g
=15
16f
16g
16f
16d
4c
=16
8f
8d
8cc
8a
=17
8.g
16a
8g
8f
=18
16d
16f
16c
16d
8.f
16g
=19
16a
16cc
16a
16g
16f
16g
16f
16d
=20
2c}
==
!!!AGN: Xiaodiao, Siju tuizi. MengjiangnÅ diao. Xin minge
!! urspruenglich aus einem kleinen Lokaltheater, das nur mit einer
!!    Melodie auskam. 1 Periode = 4 Saetze. Variante von meng jia n}.
!!    Vor-, Zwischen- und Nachspiele weggelassen.
!!!ONB: ESAC (Essen Associative Code) Database: CHINA
!!!AMT: simple duple
!!!AIN: vox
!!!EED: Helmut Schaffrath
!!!EEV: 1.0
*-
